X:1
T:Eta cieca infelice
T:Giammateo Asola
T:Source : Madrigali a due voci---Venetia---G.Vincenti---1587. Editor : André Vierendeels (21/04/17).
T:Notes : Original clef : C3, (Fuga di un tempo, una quinta piu bassa) Editorial accidentals above the staff Text Gabriel Fiamma "Rime Spirituali"
T:Eta cieca infelice
T:©
T:©
T:©
C:Giammateo Asola
Z:©
%%score [ 1 2 ]
L:1/8
Q:1/4=120
M:2/2
K:C
V:1 treble-8 nm="Tenor" snm="T"
V:2 bass nm="Bass" snm="B"
V:1
 d8 | d4 G4 | d4 d4 | e8 | d4 g4 | g4 f4 | g4 e4 | d8 | e8 | z4 g4 | f4 e4 | d4 e4 | d4 c4 | %13
w: E-|ta cie-|ca'in- fe-|li-|ce, che|se- gni|l'o- dio'e|sde-|gni,|que-|sta vir-|tu, que-|sta vir-|
 d2 d2 c2 A2 | B2 c2 d4 | B2 G2 d2 d2 | c2 A2 B4 | c4 d4 | d4 c4 | d4 B4 | A8 | G4 g4 | f4 d4 | %23
w: tu ch'è d'o- gni|ben ra- di-|ce i tuoi fu-|ror gli sde-|gni, ca-|gion d'o-|gni tuo|dan-|no, quan-|do mai|
 e6 e2 | d4 g4- | g2 fe f4 | g8 | z4 d4 | e4 g4 | f2 e2 d4 | c4 z2 e2 | d2 c2 d2 e2 | f4 e4 | %33
w: fin ha-|vran- *||no,|vor-|rai sem-|pre se- gui-|re, con|tan- to scor- no|tu- o,|
 z4 g4 | f2 d2 e2 e2 | d4 z2 e2 | d4 c4 | B4 c4 | d4 z2 A2 | c2 B2 A4 | G2 g2 f3 e | d2 c2 d4 | %42
w: con|tan- to scor- no|tuo, con|tan- to|scor- no|tuo le|ris- s'e l'i-|re, le ris- *|* s'e l'i-|
 e4 z2 d2 | d4 B4 | c4 d4 | z4 g4 | f2 f2 e4 | d2 d2 e4 | d2 g2 f2 e2- | ed g4 f2 | g8 |] %51
w: re, le|ris- s'e|l'i- re,|le|ris- s'e l'i-|re, e l'i-|re, le ris- se'e|_ _ l'i- *|re.|
V:2
 z8 | z8 | G,8 | G,4 C,4 | G,4 G,4 | A,8 | G,4 C4 | C4 B,4 | C4 A,4 | G,8 | A,8 | z4 C4 | B,4 A,4 | %13
w: ||E-|ta cie-|ca'in- fe-|li-|ce, she|se- gni|l'o- dio'e|sde-|gni,|que-|sta vir-|
 G,4 A,4 | G,4 F,4 | G,2 G,2 F,2 D,2 | E,2 F,2 G,4 | E,2 C,2 G,2 G,2 | F,2 D,2 E,4 | F,4 G,4 | %20
w: tu, que-|sta vir-|tu ch'è d'o- gni|ben ra- di-|ce i tuoi fu-|ror gli sde-|gni, ca-|
 G,4 F,4 | G,4 E,4 | D,8 | C,4 C4 | B,4 G,4 | A,6 A,2 | G,4 C4- | C2 B,A, B,4 | C8 | z4 G,4 | %30
w: gion d'o-|gni tuo|dan-|no, quan-|do mai|fin ha-|vran- *||no,|vor-|
 A,4 C4 | B,2 A,2 G,4 | F,4 z2 A,2 | G,2 F,2 G,2 A,2 | B,4 A,4 | z4 C4 | B,2 G,2 A,2 A,2 | %37
w: rai sem-|pre se- gui-|re, con|tan- to scor- no|tu- o,|con|tan- to scor- no|
 G,4 z2 A,2 | G,4 F,4 | E,4 F,4 | G,4 z2 D,2 | F,2 E,2 D,4 | C,2 C2 B,3 A, | G,2 F,2 G,4 | %44
w: tuo, con|tan- to|scor- no|tuo le|ris- s'e l'i-|re, le ris- *|* s'e l'i-|
 A,4 z2 G,2 |"^#" G,4 E,4 | F,4 G,4 | z4 C4 | B,2 B,2 A,4 | G,8- | G,8 |] %51
w: re, le|ris- s'e|l'i- re,|le|ris- s'e l'i-|re.|_|

